images_sukapura_svg/cmd/lc_zoomoptimal.svg

<svg viewBox="0 0 24 24" xmlns="http://www.w3.org/2000/svg"><path d="m9.5 2a7.5 7.5 0 0 0 -7.5 7.5 7.5 7.5 0 0 0 7.5 7.5 7.5 7.5 0 0 0 4.523438-1.529297l6.236328 6.236328c.942508.981667 2.395729-.471553 1.414062-1.414062l-6.228516-6.228516a7.5 7.5 0 0 0 1.554688-4.564453 7.5 7.5 0 0 0 -7.5-7.5zm0 2a5.5 5.5 0 0 1 5.5 5.5 5.5 5.5 0 0 1 -5.5 5.5 5.5 5.5 0 0 1 -5.5-5.5 5.5 5.5 0 0 1 5.5-5.5z" fill="#69696e"/><path d="m9.7148438 2.0117188c-.0995916.1259261-.5505897.992265-1.0644532 2.0585937a5.5 5.5 0 0 1 .8496094-.0703125 5.5 5.5 0 0 1 5.167969 3.6347656c.325596-.2956132.59607-.518897.945312-.8457031l.640625-.4609375c.465726.9904592.710175 2.0723465.712891 3.171875-.002028 1.642864-.543429 3.239616-1.541016 4.544922l.019531.019531a7.5 7.5 0 0 0 .402344-.582031c.027348-.043512.051708-.088798.078125-.132813a7.5 7.5 0 0 0 .226563-.410156c.161782-.312252.303748-.633917.419922-.964844a7.5 7.5 0 0 0 .058593-.1875c.103134-.320481.186803-.646168.246094-.978515a7.5 7.5 0 0 0 .027344-.123047c.008741-.054279.011979-.109551.019531-.164063a7.5 7.5 0 0 0 .056641-.5332028c.010738-.1621234.019366-.3250038.019531-.4882812a7.5 7.5 0 0 0 -.037109-.7539062 7.5 7.5 0 0 0 -.298829-1.4628907 7.5 7.5 0 0 0 -.25-.6894531c-.021351-.0506473-.047885-.0983667-.070312-.1484375a7.5 7.5 0 0 0 -.246094-.5078125c-.05289-.0975428-.112883-.1902906-.169922-.2851562a7.5 7.5 0 0 0 -.195312-.3164063c-.08365-.1246658-.174829-.2440741-.265625-.3632813a7.5 7.5 0 0 0 -.158203-.2089843c-.108915-.1331028-.224123-.2595272-.341797-.3847657a7.5 7.5 0 0 0 -.128906-.1386718c-.122816-.1242865-.2516-.2419206-.382813-.3574219a7.5 7.5 0 0 0 -.15039-.1328125c-.128066-.1068089-.261386-.2084171-.396485-.3066406a7.5 7.5 0 0 0 -.185547-.1328125c-.147035-.1002227-.298835-.1934094-.453125-.2832031a7.5 7.5 0 0 0 -.132812-.0761719c-.163654-.0908116-.331075-.1752569-.501953-.2539063a7.5 7.5 0 0 0 -.154297-.0703125c-.170159-.0736777-.34311-.1419473-.519531-.203125a7.5 7.5 0 0 0 -.154297-.0507812c-.186783-.0602463-.377448-.1144513-.570313-.1601563a7.5 7.5 0 0 0 -.107422-.0234375c-.211504-.0468422-.424778-.0866219-.642578-.1152343a7.5 7.5 0 0 0 -.054687-.0058594c-.235825-.0292278-.4747174-.0497726-.7167972-.0566406zm4.9765622 5.6933593a5.5 5.5 0 0 1 .066406.1972657 5.5 5.5 0 0 0 -.066406-.1972657zm.177735.6308594a5.5 5.5 0 0 1 .021484.1015625 5.5 5.5 0 0 0 -.021484-.1015625zm.083984.5a5.5 5.5 0 0 1 .021484.171875 5.5 5.5 0 0 0 -.021484-.171875zm.046875.6640625a5.5 5.5 0 0 1 -.021484.4335938 5.5 5.5 0 0 0 .021484-.4335938zm-.0625.785156a5.5 5.5 0 0 1 -.025391.166016 5.5 5.5 0 0 0 .025391-.166016zm-.109375.552735a5.5 5.5 0 0 1 -.037109.146484 5.5 5.5 0 0 0 .037109-.146484zm-8.6601562 3.029297a5.5 5.5 0 0 0 .0839843.064453 5.5 5.5 0 0 1 -.0839843-.064453zm7.8417972 1.589843c-.113556.086863-.231799.166194-.34961.246094.119556-.080437.248067-.144837.363282-.232422zm-1.982422 1.083985c-.225198.082811-.455266.156036-.6875.216796a7.5 7.5 0 0 0 .035156-.009765c.219816-.058777.439033-.128115.652344-.207031z" fill="#fff" fill-opacity=".784314"/><path d="m11.004237 2h5.995763l-4 4h2l-9 7 3-6h-2z" fill="#ff9500" fill-rule="evenodd"/></svg>

<?xml version="1.0" encoding="UTF-8" standalone="no"?>
<svg
   xmlns:dc="http://purl.org/dc/elements/1.1/"
   xmlns:cc="http://creativecommons.org/ns#"
   xmlns:rdf="http://www.w3.org/1999/02/22-rdf-syntax-ns#"
   xmlns:svg="http://www.w3.org/2000/svg"
   xmlns="http://www.w3.org/2000/svg"
   xmlns:sodipodi="http://sodipodi.sourceforge.net/DTD/sodipodi-0.dtd"
   xmlns:inkscape="http://www.inkscape.org/namespaces/inkscape"
   viewBox="0 0 24 24"
   version="1.1"
   id="svg8"
   sodipodi:docname="lc_zoomoptimal.svg"
   inkscape:version="0.92.3 (unknown)"
   inkscape:export-filename="/home/rizmut/Dokumen/Rizmut/Github/libreoffice-style-sukapura/images_sukapura/cmd/lc_zoomprevious.png"
   inkscape:export-xdpi="96"
   inkscape:export-ydpi="96">
  <metadata
     id="metadata14">
    <rdf:RDF>
      <cc:Work
         rdf:about="">
        <dc:format>image/svg+xml</dc:format>
        <dc:type
           rdf:resource="http://purl.org/dc/dcmitype/StillImage" />
        <dc:title></dc:title>
      </cc:Work>
    </rdf:RDF>
  </metadata>
  <defs
     id="defs12">
    <linearGradient
       gradientTransform="translate(75,-7)"
       id="a"
       gradientUnits="userSpaceOnUse"
       x1="14"
       x2="13.79661"
       y1="22"
       y2="2.1355929">
      <stop
         offset="0"
         stop-color="#0040dd"
         id="stop2206" />
      <stop
         offset="1"
         stop-color="#0a84ff"
         id="stop2208" />
    </linearGradient>
  </defs>
  <sodipodi:namedview
     pagecolor="#ffffff"
     bordercolor="#666666"
     borderopacity="1"
     objecttolerance="10"
     gridtolerance="10"
     guidetolerance="10"
     inkscape:pageopacity="0"
     inkscape:pageshadow="2"
     inkscape:window-width="1366"
     inkscape:window-height="706"
     id="namedview10"
     showgrid="true"
     inkscape:snap-global="true"
     inkscape:zoom="11.313709"
     inkscape:cx="5.8245495"
     inkscape:cy="7.3912277"
     inkscape:window-x="0"
     inkscape:window-y="0"
     inkscape:window-maximized="1"
     inkscape:current-layer="svg8">
    <inkscape:grid
       type="xygrid"
       id="grid821"
       spacingx="0.5"
       spacingy="0.5"
       empspacing="2" />
  </sodipodi:namedview>
  <path
     style="fill:#69696e;fill-opacity:1"
     d="M 9.5 2 A 7.5 7.5 0 0 0 2 9.5 A 7.5 7.5 0 0 0 9.5 17 A 7.5 7.5 0 0 0 14.023438 15.470703 L 20.259766 21.707031 C 21.202274 22.688698 22.655495 21.235478 21.673828 20.292969 L 15.445312 14.064453 A 7.5 7.5 0 0 0 17 9.5 A 7.5 7.5 0 0 0 9.5 2 z M 9.5 4 A 5.5 5.5 0 0 1 15 9.5 A 5.5 5.5 0 0 1 9.5 15 A 5.5 5.5 0 0 1 4 9.5 A 5.5 5.5 0 0 1 9.5 4 z "
     id="path2" />
  <path
     style="fill:#ffffff;fill-opacity:0.78431374"
     d="M 9.7148438 2.0117188 C 9.6152522 2.1376449 9.1642541 3.0039838 8.6503906 4.0703125 A 5.5 5.5 0 0 1 9.5 4 A 5.5 5.5 0 0 1 14.667969 7.6347656 C 14.993565 7.3391524 15.264039 7.1158686 15.613281 6.7890625 L 16.253906 6.328125 C 16.719632 7.3185842 16.964081 8.4004715 16.966797 9.5 C 16.964769 11.142864 16.423368 12.739616 15.425781 14.044922 L 15.445312 14.064453 A 7.5 7.5 0 0 0 15.847656 13.482422 C 15.875004 13.43891 15.899364 13.393624 15.925781 13.349609 A 7.5 7.5 0 0 0 16.152344 12.939453 C 16.314126 12.627201 16.456092 12.305536 16.572266 11.974609 A 7.5 7.5 0 0 0 16.630859 11.787109 C 16.733993 11.466628 16.817662 11.140941 16.876953 10.808594 A 7.5 7.5 0 0 0 16.904297 10.685547 C 16.913038 10.631268 16.916276 10.575996 16.923828 10.521484 A 7.5 7.5 0 0 0 16.980469 9.9882812 C 16.991207 9.8261578 16.999835 9.6632774 17 9.5 A 7.5 7.5 0 0 0 16.962891 8.7460938 A 7.5 7.5 0 0 0 16.664062 7.2832031 A 7.5 7.5 0 0 0 16.414062 6.59375 C 16.392711 6.5431027 16.366177 6.4953833 16.34375 6.4453125 A 7.5 7.5 0 0 0 16.097656 5.9375 C 16.044766 5.8399572 15.984773 5.7472094 15.927734 5.6523438 A 7.5 7.5 0 0 0 15.732422 5.3359375 C 15.648772 5.2112717 15.557593 5.0918634 15.466797 4.9726562 A 7.5 7.5 0 0 0 15.308594 4.7636719 C 15.199679 4.6305691 15.084471 4.5041447 14.966797 4.3789062 A 7.5 7.5 0 0 0 14.837891 4.2402344 C 14.715075 4.1159479 14.586291 3.9983138 14.455078 3.8828125 A 7.5 7.5 0 0 0 14.304688 3.75 C 14.176622 3.6431911 14.043302 3.5415829 13.908203 3.4433594 A 7.5 7.5 0 0 0 13.722656 3.3105469 C 13.575621 3.2103242 13.423821 3.1171375 13.269531 3.0273438 A 7.5 7.5 0 0 0 13.136719 2.9511719 C 12.973065 2.8603603 12.805644 2.775915 12.634766 2.6972656 A 7.5 7.5 0 0 0 12.480469 2.6269531 C 12.31031 2.5532754 12.137359 2.4850058 11.960938 2.4238281 A 7.5 7.5 0 0 0 11.806641 2.3730469 C 11.619858 2.3128006 11.429193 2.2585956 11.236328 2.2128906 A 7.5 7.5 0 0 0 11.128906 2.1894531 C 10.917402 2.1426109 10.704128 2.1028312 10.486328 2.0742188 A 7.5 7.5 0 0 0 10.431641 2.0683594 C 10.195816 2.0391316 9.9569236 2.0185868 9.7148438 2.0117188 z M 14.691406 7.7050781 A 5.5 5.5 0 0 1 14.757812 7.9023438 A 5.5 5.5 0 0 0 14.691406 7.7050781 z M 14.869141 8.3359375 A 5.5 5.5 0 0 1 14.890625 8.4375 A 5.5 5.5 0 0 0 14.869141 8.3359375 z M 14.953125 8.8359375 A 5.5 5.5 0 0 1 14.974609 9.0078125 A 5.5 5.5 0 0 0 14.953125 8.8359375 z M 15 9.5 A 5.5 5.5 0 0 1 14.978516 9.9335938 A 5.5 5.5 0 0 0 15 9.5 z M 14.9375 10.285156 A 5.5 5.5 0 0 1 14.912109 10.451172 A 5.5 5.5 0 0 0 14.9375 10.285156 z M 14.828125 10.837891 A 5.5 5.5 0 0 1 14.791016 10.984375 A 5.5 5.5 0 0 0 14.828125 10.837891 z M 6.1679688 13.867188 A 5.5 5.5 0 0 0 6.2519531 13.931641 A 5.5 5.5 0 0 1 6.1679688 13.867188 z M 14.009766 15.457031 C 13.89621 15.543894 13.777967 15.623225 13.660156 15.703125 C 13.779712 15.622688 13.908223 15.558288 14.023438 15.470703 L 14.009766 15.457031 z M 12.027344 16.541016 C 11.802146 16.623827 11.572078 16.697052 11.339844 16.757812 A 7.5 7.5 0 0 0 11.375 16.748047 C 11.594816 16.68927 11.814033 16.619932 12.027344 16.541016 z "
     id="path849" />
  <path
     inkscape:connector-curvature="0"
     style="fill:#ff9500;fill-rule:evenodd;fill-opacity:1"
     d="M 11.004237,2 H 17 l -4,4 h 2 L 6,13 9,7 H 7 Z"
     id="path6" />
</svg>
